material/.icons/material/roman-numeral-8.svg

<svg xmlns="http://www.w3.org/2000/svg" viewBox="0 0 24 24"><path d="M1 7l2 10h2L7 7H5l-1 5-1-5H1m11 0v2h-1v6h1v2H8v-2h1V9H8V7h4m5 0v2h-1v6h1v2h-4v-2h1V9h-1V7h4m5 0v2h-1v6h1v2h-4v-2h1V9h-1V7h4z"/></svg>

<?xml version="1.0" encoding="UTF-8"?><!DOCTYPE svg PUBLIC "-//W3C//DTD SVG 1.1//EN" "http://www.w3.org/Graphics/SVG/1.1/DTD/svg11.dtd"><svg xmlns="http://www.w3.org/2000/svg" xmlns:xlink="http://www.w3.org/1999/xlink" version="1.1" id="mdi-roman-numeral-8" width="24" height="24" viewBox="0 0 24 24"><path d="M1 7L3 17H5L7 7H5L4 12L3 7H1M12 7V9H11V15H12V17H8V15H9V9H8V7H12M17 7V9H16V15H17V17H13V15H14V9H13V7H17M22 7V9H21V15H22V17H18V15H19V9H18V7H22Z" /></svg>
